X:1
T:Title
%%score { ( 1 3 5 ) | ( 2 4 ) }
L:1/8
M:4/4
K:Db
V:1 treble nm="Grand Piano"
V:3 treble 
V:5 treble 
V:2 bass 
V:4 bass 
V:1
 z4 z2[Q:1/4=100] [FA]2 | F3 E D2 E2 | F3 [EG] [FA]2 [FA]2 | [GB]3 [Bd] [Ac]2 [GB]2 | [FA]6 G2 | %5
 F3 E D2 E2 | F3 G A2 [FA]2 | A3 d c2 B2 |[M:7/8] A-[DA-][EA-] [FA-] [GA]3 |[M:1/4] A2 | %10
[M:4/4] [Fd]6 z2 | A2 [GA]2 [FA]2 A2 | e6 z2 |[M:3/4] d6 |[M:1/4] [FA]2 |[M:4/4] [Af]6 z2 | %16
[M:19/16] e-<ee-<eB/-B/-B/-B/-B/-B-<BB |[M:4/4] A2 [Ad]2 [=Gd]2 c2 |[M:3/4] [Fd]6 |] %19
V:2
 z4 z2 [D,A,]2 | [D,A,D]3 [D,G,A,] [D,F,A,]2 [D,G,A,]2 | [D,A,D]3 [D,A,] [D,D]2 [D,D]2 | %3
 [G,D]3 [G,D] [G,D]2 [G,D]2 | [D,D]6 [A,C]2 | [D,A,D]3 [D,G,A,] [D,F,A,]2 [D,G,A,]2 | %6
 [D,A,D]3 [E,A,C] [F,A,D]2 [D,D]2 | [E,CE]3 [E,B,E] [E,A,E]2 [E,=G,D]2 |[M:7/8] z B,C D E3 | %9
[M:1/4] [A,G]2 |[M:4/4] [D,A,]2 D,2 D,[D,A,D][D,=G,D][D,A,D] | [F,A,D]2 [E,C]2 [D,D]2 [F,D]2 | %12
 [A,CA]2 [B,D]2 [CE]2 [A,G]-[A,EG] |[M:3/4][K:bass] D,[E,D] [F,D][E,D] [D,D]2 |[M:1/4] [D,D]2 | %15
[M:4/4] [D,D]2 D,2 D,[D,A,][E,A,][F,D] | %16
[M:19/16][K:treble] [G,B,G]-<[G,B,G][G,B,G]-<[G,B,G][G,DG]/-[G,DG]/-[G,DG]/-[G,DG]/-[G,DG]/-[G,DG]-<[G,DG][G,DG] | %17
[M:4/4] [A,DF]2[K:bass] [F,D]2 [E,E]2 [A,G]2 |[M:3/4] [D,A,]6 |] %19
V:3
 x8 | x8 | x8 | x8 | x8 | x8 | x8 | x8 |[M:7/8] [A,C] z z z z z2 |[M:1/4] x2 | %10
[M:4/4] z2 A,2 A,F_F=F | x8 | z2 A2 z ABc |[M:3/4] [DF]G AG F2 |[M:1/4] x2 | %15
[M:4/4] z2 D2 D[Fd][Gc][Ad] |[M:19/16] x19/2 |[M:4/4] x8 |[M:3/4] x6 |] %19
V:4
 x8 | x8 | x8 | x8 | x8 | x8 | x8 | x8 |[M:7/8] A,,-A,,-A,,- A,,- A,,3 |[M:1/4] x2 |[M:4/4] x8 | %11
 x8 | z4 z2 .C2 |[M:3/4][K:bass] x6 |[M:1/4] x2 |[M:4/4] x8 |[M:19/16][K:treble] x19/2 | %17
[M:4/4] x2[K:bass] x6 |[M:3/4] x6 |] %19
V:5
 x8 | x8 | x8 | x8 | x8 | x8 | x8 | x8 |[M:7/8] x7 |[M:1/4] x2 |[M:4/4] x8 | x8 | z4 G2 z2 | %13
[M:3/4] x6 |[M:1/4] x2 |[M:4/4] x8 |[M:19/16] x19/2 |[M:4/4] x8 |[M:3/4] x6 |] %19

